X: 18
T: Drumshugh
%R: reel
N: Probably refers to Drumsheugh, a district in west Edinburgh.
B: "Scots Reel & Country Dances for the Year 1769", R.Bremner, ed. p.106 #2
F: http://digital.nls.uk/special-collections-of-printed-music/pageturner.cfm?id=104993891
Z: 2016 John Chambers <jc:trillian.mit.edu>
N: The rhythms between the strains aren't right; not fixed.
M: C|
L: 1/8
K: D
% - - - - - - - - - - - - - - - - - - - - - - - - - - - - -
V: 1
|:\
FDDB d2(df) | (Te>de)f E/E/E EG |\
FD-DB d2-df | Te>def d/d/d d :|\
f |\
afab afdf | edfd e/e/e (ef) |
afab afdf | Te>def d/d/d df |\
afab afdf | edfd e/e/e ea |\
bgae fdec | dBAF d2(df) |]
% - - - - - - - - - - - - - - - - - - - - - - - - - - - - -
V: 2 clef=bass middle=d
|:\
d2d2 d2d2 | e2e2 e2e2 |\
d2d2 d2d2 | A2A2 D2D :|\
z | d2d2 d2d2 | e2e2 e2e2 |
d2d2 d2d2 | A2A2 D2D2 |\
d2d2 d2d2 | e2e2 e2e2 |\
d2c2 d2e2 | fga2 d2d2 |]
% - - - - - - - - - - Dance description - - - - - - - - - -
%%begintext align
%% Cast of two Cu: .|
%% cast up again :|
%% cross over two Cu: .|.
%% lead up to the Top and cast off :|:
%% set corners and turn :||
%% & Hey :||:
%%endtext
%%sep 2 2 400


